X:1
T:Title
%%score { ( 1 3 ) | ( 2 4 ) }
L:1/8
Q:1/4=100
M:6/8
K:F
V:1 treble nm="Grand Piano"
V:3 treble 
V:2 bass 
V:4 bass 
V:1
 CFG A2 F | G3 .F3 | CFA c2 d | c6 | [Ec][GB][FA] [EG]2 [EA] | [EG]3 .F3 | AGA G2 d | [Ec]6 | %8
w: J.~S.~Fearis * * * *||||||||
 A2 d A2 c | B3 z3 | z3 .A3 | [EG]6 | AAA AGF |[M:7/8] F2 B [Fd]3 z | %14
w: ||||||
[M:3/4] [Fc][FA] F [EG]2 [Ec] | F6 |] %16
w: ||
V:2
 [F,A,][F,A,C][F,B,C] [F,CF]2 [F,A,C] | [C,B,C]3 .[F,A,C]3 | %2
 [F,A,][F,A,C][F,CF] [F,A,F]2 [F,_A,F] | [F,A,F]6 | [C,C][C,C][C,C] [C,B,]2 [C,C] | %5
 [^C,B,]3 .[D,A,]3 | [G,=B,F][G,B,F][G,B,F] [G,B,F]2 [G,B,F] | [C,C]6 | %8
 [F,CF]2 [F,A,F] [^F,C_E]2 [F,A,] | [G,E]3 .[C,B,]3 | [F,A,C][F,A,C][F,A,C] [D,=B,]2 [D,B,] | %11
 [C,C]6 | z3 .C3 |[M:7/8] [B,D]3 [B,,B,]3 z |[M:3/4] [C,A,][C,C] [C,A,] [C,B,]2 [C,B,] | [F,A,]6 |] %16
V:3
 x6 | x6 | x6 | x6 | x6 | x6 | x6 | x6 | x6 | z2 C .C3 | FFF F-[FG]F | x6 | x6 |[M:7/8] x7 | %14
[M:3/4] x6 | x6 |] %16
V:4
 x6 | x6 | x6 | x6 | x6 | x6 | x6 | x6 | x6 | x6 | x6 | x6 | %12
 [F,CF][F,CF][F,CF] [F,_E]-[F,B,E][F,A,E] |[M:7/8] x7 |[M:3/4] x6 | x6 |] %16

